X: 191
T: I Wish To Do My Part
C: Teton Sioux band 1911-1914
N: Derived from sioux186.krn
O: South Dakota, U.S.A.
N: Teton Sioux Music by Frances Densmore, 1918
Z: transcribed to **kern format by Craig Sapp
L: 1/8
M: 3/4
Q: 1/4=58
K: C clef=bass
%%linebreak <none>
E< EE2E B, [I:setbarnb 2]| 
B,< EE2E2 ||  
[M:2/4]F> E F/ F3/ | 
F E E B, ||  
[M:3/4]C C B, B,A,2 | 
B,/ B,/ B, B,/ B,/ B,-B,2 ||  
[M:2/4]C> B, C/ C3/ ||  
[M:3/4]C B, B, A,/ A,/ A, A, | 
C CB,2B,3/ A,/ ||  
[M:2/4]C< A, A, A, | 
A,4- | 
A,2E, E, ||  
[M:3/4]C C B, B, A, A,/ E,/ | 
A, A,E,2E, E, ||  
[M:2/4]E,4 | 
E,2z2 ||  
[M:3/4]C< A, C C C C | 
_D D/> C/ D< D D C ||  
[M:2/4]C A, A, A, ||  
[M:3/4]A,< C _D C C A, ||  
[M:2/4]C< A, A, A, | 
A,4- | 
A,2E, E, ||  
[M:3/4]C C B, B, A, A,/ E,/ | 
A, A,E,2E, E, ||  
[M:2/4]E,4 | 
E,2z2 |]  



